X: 1386
T: Muhayyerkürdî Seyir
C: Erol Bingöl
O: Turkey
F: http://compmusic.upf.edu/node/140
N: muhayyerkurdi--seyir--turkaksagi--1--erol_bingol
N: makam= muhayyerkurdi
N: form= seyir
N: usul= turkaksagi = 5/8
M: 5/8
L: 1/16
K: C _B   
Q: 1/4=120
%%MIDI tuningsystem comma53
g4 a4 g2 | a2 baa6  | a2b2 d'4 c'2 | c'b baa6  | \
w:   |   |   |   | 
a2b2 c'2b2 a2 | 
w:   | 
g2 agf2 e2d2  | e2f2 agfe d2 | e2 c2d6  | \
w:   |   |   | 
f2e2 f4 a2 | g2 f2e4d2  | 
w:   |   | 
c2d2 e2d2 c2 | cB BAB6  | A2B2 c2d2 e2 | \
w:   |   |   | 
f2 e2d6  | cdef e2d2 c2 | 
w:   |   | 
cB BAA6  | |


